X: 32
T: Weishengme shoukuren hei dongdong
L: 1/16
M: 2/4
K: G
e2d4e g [I:setbarnb 1]| 
B2> A2 G2 E2 | 
B2 B d A2 G E | 
A8 | 
e2d4e g | 
B2> A2 G2 E2 | 
B2> d2 A2 G E | 
D8 |]

@@@ Tune index: 8906
